; generated by PrusaSlicer 2.2.0 on 2021-01-22 at 15:56:27 UTC

; 

; external perimeters extrusion width = 0.45mm
; perimeters extrusion width = 0.45mm
; infill extrusion width = 0.45mm
; solid infill extrusion width = 0.45mm
; top infill extrusion width = 0.40mm
; first layer extrusion width = 0.42mm

M73 P0 R36
M73 Q0 S36
M201 X1000 Y1000 Z200 E5000 ; sets maximum accelerations, mm/sec^2
M203 X200 Y200 Z12 E120 ; sets maximum feedrates, mm/sec
M204 P1250 R1250 T1250 ; sets acceleration (P, T) and retract acceleration (R), mm/sec^2
M205 X8.00 Y8.00 Z0.40 E4.50 ; sets the jerk limits, mm/sec
M205 S0 T0 ; sets the minimum extruding and travel feed rate, mm/sec
M107
M862.3 P "MK3S" ; printer model check
M862.1 P0.4 ; nozzle diameter check
M115 U3.9.3 ; tell printer latest fw version
G90 ; use absolute coordinates
M83 ; extruder relative mode
M104 S215 ; set extruder temp
M140 S60 ; set bed temp
M190 S60 ; wait for bed temp
M109 S215 ; wait for extruder temp
G28 W ; home all without mesh bed level
G80 ; mesh bed leveling
G1 Y-3.0 F1000.0 ; go outside print area
G92 E0.0
G1 X60.0 E9.0 F1000.0 ; intro line
M73 Q0 S36
M73 P0 R36
G1 X100.0 E12.5 F1000.0 ; intro line
G92 E0.0
M221 S95

; Don't change E values below. Excessive value can damage the printer.
M907 E430 ; set extruder motor current
G21 ; set units to millimeters
G90 ; use absolute coordinates
M83 ; use relative distances for extrusion
M900 K0.05 ; Filament gcode LA 1.5
M900 K30 ; Filament gcode LA 1.0
;BEFORE_LAYER_CHANGE
G92 E0.0
;0.2


G1 E-0.80000 F2100.00000
G1 Z0.400 F10800.000
;AFTER_LAYER_CHANGE
;0.2
G1 X94.275 Y82.736
G1 Z0.200
G1 E0.80000 F2100.00000
M204 S1000
G1 F1200.000
G1 X94.984 Y82.623 E0.02249
G1 X155.004 Y82.623 E1.88189
G1 X155.895 Y82.798 E0.02849
G1 X156.656 Y83.295 E0.02849
G1 X157.175 Y84.041 E0.02849
G1 X157.376 Y84.927 E0.02849
G1 X157.376 Y125.057 E1.25827
G1 X157.299 Y125.603 E0.01728
G1 X157.097 Y126.119 E0.01740
G1 X156.783 Y126.572 E0.01728
G1 X156.370 Y126.943 E0.01740
G1 X155.725 Y127.264 E0.02260
G1 X155.016 Y127.377 E0.02249
G1 X94.977 Y127.377 E1.88249
G1 X94.423 Y127.306 E0.01752
G1 X93.897 Y127.106 E0.01763
G1 X93.434 Y126.788 E0.01763
G1 X93.057 Y126.370 E0.01763
G1 X92.737 Y125.728 E0.02249
G1 X92.623 Y125.024 E0.02237
G1 X92.623 Y84.970 E1.25588
G1 X92.696 Y84.416 E0.01752
G1 X92.896 Y83.894 E0.01752
G1 X93.215 Y83.431 E0.01763
G1 X93.630 Y83.057 E0.01752
G1 X94.222 Y82.763 E0.02072
; printing object GetOutOfJailFree.stl id:0 copy 0
G1 F8640.000
G1 X94.984 Y82.623 E-0.17886
G1 X97.500 Y82.623 E-0.58114
G1 E-0.04000 F2100.00000
G1 Z0.600 F10800.000
G1 X95.787 Y85.787
G1 Z0.200
G1 E0.80000 F2100.00000
G1 F1200.000
G1 X154.213 Y85.787 E1.83190
G1 X154.213 Y124.213 E1.20482
G1 X95.787 Y124.213 E1.83190
G1 X95.787 Y85.847 E1.20293
G1 X95.410 Y85.410 F10800.000
G1 F1200.000
G1 X154.590 Y85.410 E1.85555
G1 X154.590 Y124.590 E1.22846
G1 X95.410 Y124.590 E1.85555
G1 X95.410 Y85.470 E1.22658
G1 X95.802 Y85.487 F10800.000
G1 F8640.000
G1 X98.701 Y85.467 E-0.76000
G1 E-0.04000 F2100.00000
G1 Z0.600 F10800.000
G1 X154.100 Y86.667
G1 Z0.200
G1 E0.80000 F2100.00000
G1 F1200.000
G1 X153.503 Y86.070 E0.02659
G1 X152.967 Y86.070 E0.01689
G1 X153.930 Y87.033 E0.04291
G1 X153.930 Y87.569 E0.01689
G1 X152.431 Y86.070 E0.06680
G1 X151.895 Y86.070 E0.01689
G1 X153.930 Y88.105 E0.09069
G1 X153.930 Y88.641 E0.01689
G1 X151.359 Y86.070 E0.11457
G1 X150.823 Y86.070 E0.01689
G1 X153.930 Y89.177 E0.13846
G1 X153.930 Y89.713 E0.01689
G1 X150.287 Y86.070 E0.16234
G1 X149.751 Y86.070 E0.01689
G1 X153.930 Y90.249 E0.18623
G1 X153.930 Y90.785 E0.01689
G1 X149.215 Y86.070 E0.21012
G1 X148.679 Y86.070 E0.01689
G1 X153.930 Y91.321 E0.23400
G1 X153.930 Y91.857 E0.01689
G1 X148.143 Y86.070 E0.25789
G1 X147.608 Y86.070 E0.01689
G1 X153.930 Y92.392 E0.28177
G1 X153.930 Y92.928 E0.01689
G1 X147.072 Y86.070 E0.30566
G1 X146.536 Y86.070 E0.01689
G1 X153.930 Y93.464 E0.32955
G1 X153.930 Y94.000 E0.01689
G1 X146.000 Y86.070 E0.35343
G1 X145.464 Y86.070 E0.01689
G1 X153.930 Y94.536 E0.37732
G1 X153.930 Y95.072 E0.01689
G1 X144.928 Y86.070 E0.40120
G1 X144.392 Y86.070 E0.01689
G1 X153.930 Y95.608 E0.42509
G1 X153.930 Y96.144 E0.01689
G1 X143.856 Y86.070 E0.44898
G1 X143.320 Y86.070 E0.01689
G1 X153.930 Y96.680 E0.47286
G1 X153.930 Y97.216 E0.01689
G1 X142.784 Y86.070 E0.49675
G1 X142.248 Y86.070 E0.01689
G1 X153.930 Y97.752 E0.52064
G1 X153.930 Y98.288 E0.01689
G1 X141.712 Y86.070 E0.54452
G1 X141.176 Y86.070 E0.01689
G1 X153.930 Y98.824 E0.56841
G1 X153.930 Y99.360 E0.01689
G1 X140.640 Y86.070 E0.59229
G1 X140.104 Y86.070 E0.01689
G1 X153.930 Y99.896 E0.61618
G1 X153.930 Y100.432 E0.01689
G1 X139.568 Y86.070 E0.64007
G1 X139.032 Y86.070 E0.01689
G1 X153.930 Y100.968 E0.66395
G1 X153.930 Y101.504 E0.01689
G1 X138.496 Y86.070 E0.68784
G1 X137.960 Y86.070 E0.01689
G1 X153.930 Y102.040 E0.71172
G1 X153.930 Y102.576 E0.01689
G1 X137.424 Y86.070 E0.73561
G1 X136.888 Y86.070 E0.01689
G1 X153.930 Y103.112 E0.75950
G1 X153.930 Y103.648 E0.01689
G1 X136.352 Y86.070 E0.78338
G1 X135.816 Y86.070 E0.01689
G1 X153.930 Y104.184 E0.80727
G1 X153.930 Y104.720 E0.01689
G1 X135.280 Y86.070 E0.83115
M73 Q2 S35
G1 X134.744 Y86.070 E0.01689
G1 X153.930 Y105.256 E0.85504
M73 P2 R35
G1 X153.930 Y105.792 E0.01689
G1 X134.208 Y86.070 E0.87893
G1 X133.672 Y86.070 E0.01689
G1 X153.930 Y106.328 E0.90281
G1 X153.930 Y106.864 E0.01689
G1 X133.136 Y86.070 E0.92670
G1 X132.600 Y86.070 E0.01689
G1 X153.930 Y107.400 E0.95058
G1 X153.930 Y107.936 E0.01689
G1 X132.064 Y86.070 E0.97447
G1 X131.528 Y86.070 E0.01689
G1 X153.930 Y108.472 E0.99836
G1 X153.930 Y109.008 E0.01689
G1 X130.992 Y86.070 E1.02224
G1 X130.456 Y86.070 E0.01689
G1 X153.930 Y109.544 E1.04613
G1 X153.930 Y110.080 E0.01689
G1 X129.920 Y86.070 E1.07002
G1 X129.385 Y86.070 E0.01689
G1 X153.930 Y110.615 E1.09390
G1 X153.930 Y111.151 E0.01689
G1 X128.849 Y86.070 E1.11779
G1 X128.313 Y86.070 E0.01689
G1 X153.930 Y111.687 E1.14167
G1 X153.930 Y112.223 E0.01689
G1 X127.777 Y86.070 E1.16556
G1 X127.241 Y86.070 E0.01689
G1 X153.930 Y112.759 E1.18945
G1 X153.930 Y113.295 E0.01689
G1 X126.705 Y86.070 E1.21333
G1 X126.169 Y86.070 E0.01689
G1 X153.930 Y113.831 E1.23722
G1 X153.930 Y114.367 E0.01689
G1 X125.633 Y86.070 E1.26110
G1 X125.097 Y86.070 E0.01689
G1 X153.930 Y114.903 E1.28499
G1 X153.930 Y115.439 E0.01689
G1 X124.561 Y86.070 E1.30888
G1 X124.025 Y86.070 E0.01689
G1 X153.930 Y115.975 E1.33276
G1 X153.930 Y116.511 E0.01689
G1 X123.489 Y86.070 E1.35665
G1 X122.953 Y86.070 E0.01689
G1 X153.930 Y117.047 E1.38053
G1 X153.930 Y117.583 E0.01689
G1 X122.417 Y86.070 E1.40442
G1 X121.881 Y86.070 E0.01689
G1 X153.930 Y118.119 E1.42831
G1 X153.930 Y118.655 E0.01689
G1 X121.345 Y86.070 E1.45219
G1 X120.809 Y86.070 E0.01689
G1 X153.930 Y119.191 E1.47608
G1 X153.930 Y119.727 E0.01689
G1 X120.273 Y86.070 E1.49996
G1 X119.737 Y86.070 E0.01689
G1 X153.930 Y120.263 E1.52385
G1 X153.930 Y120.799 E0.01689
G1 X119.201 Y86.070 E1.54774
G1 X118.665 Y86.070 E0.01689
G1 X153.930 Y121.335 E1.57162
M73 Q5 S34
G1 X153.930 Y121.871 E0.01689
G1 X118.129 Y86.070 E1.59551
M73 P5 R34
G1 X117.593 Y86.070 E0.01689
G1 X153.930 Y122.407 E1.61939
G1 X153.930 Y122.943 E0.01689
G1 X117.057 Y86.070 E1.64328
G1 X116.521 Y86.070 E0.01689
G1 X153.930 Y123.479 E1.66717
G1 X153.930 Y123.930 E0.01422
G1 X153.846 Y123.930 E0.00267
G1 X115.985 Y86.070 E1.68728
G1 X115.449 Y86.070 E0.01689
G1 X153.310 Y123.930 E1.68728
G1 X152.774 Y123.930 E0.01689
G1 X114.913 Y86.070 E1.68728
G1 X114.377 Y86.070 E0.01689
G1 X152.238 Y123.930 E1.68728
G1 X151.702 Y123.930 E0.01689
G1 X113.841 Y86.070 E1.68728
G1 X113.305 Y86.070 E0.01689
G1 X151.166 Y123.930 E1.68728
G1 X150.630 Y123.930 E0.01689
G1 X112.769 Y86.070 E1.68728
G1 X112.233 Y86.070 E0.01689
G1 X150.094 Y123.930 E1.68728
G1 X149.558 Y123.930 E0.01689
G1 X111.698 Y86.070 E1.68728
G1 X111.162 Y86.070 E0.01689
G1 X149.022 Y123.930 E1.68728
G1 X148.486 Y123.930 E0.01689
G1 X110.626 Y86.070 E1.68728
G1 X110.090 Y86.070 E0.01689
G1 X147.950 Y123.930 E1.68728
G1 X147.414 Y123.930 E0.01689
G1 X109.554 Y86.070 E1.68728
G1 X109.018 Y86.070 E0.01689
G1 X146.878 Y123.930 E1.68728
G1 X146.342 Y123.930 E0.01689
G1 X108.482 Y86.070 E1.68728
G1 X107.946 Y86.070 E0.01689
G1 X145.806 Y123.930 E1.68728
G1 X145.270 Y123.930 E0.01689
G1 X107.410 Y86.070 E1.68728
G1 X106.874 Y86.070 E0.01689
G1 X144.734 Y123.930 E1.68728
G1 X144.198 Y123.930 E0.01689
G1 X106.338 Y86.070 E1.68728
M73 Q8 S33
G1 X105.802 Y86.070 E0.01689
G1 X143.662 Y123.930 E1.68728
M73 P8 R33
G1 X143.126 Y123.930 E0.01689
G1 X105.266 Y86.070 E1.68728
G1 X104.730 Y86.070 E0.01689
G1 X142.590 Y123.930 E1.68728
G1 X142.054 Y123.930 E0.01689
G1 X104.194 Y86.070 E1.68728
G1 X103.658 Y86.070 E0.01689
G1 X141.518 Y123.930 E1.68728
G1 X140.982 Y123.930 E0.01689
G1 X103.122 Y86.070 E1.68728
G1 X102.586 Y86.070 E0.01689
G1 X140.446 Y123.930 E1.68728
G1 X139.910 Y123.930 E0.01689
G1 X102.050 Y86.070 E1.68728
G1 X101.514 Y86.070 E0.01689
G1 X139.374 Y123.930 E1.68728
G1 X138.838 Y123.930 E0.01689
G1 X100.978 Y86.070 E1.68728
G1 X100.442 Y86.070 E0.01689
G1 X138.302 Y123.930 E1.68728
G1 X137.766 Y123.930 E0.01689
G1 X99.906 Y86.070 E1.68728
G1 X99.370 Y86.070 E0.01689
G1 X137.230 Y123.930 E1.68728
G1 X136.694 Y123.930 E0.01689
G1 X98.834 Y86.070 E1.68728
G1 X98.298 Y86.070 E0.01689
G1 X136.159 Y123.930 E1.68728
G1 X135.623 Y123.930 E0.01689
G1 X97.762 Y86.070 E1.68728
G1 X97.226 Y86.070 E0.01689
G1 X135.087 Y123.930 E1.68728
G1 X134.551 Y123.930 E0.01689
G1 X96.690 Y86.070 E1.68728
G1 X96.154 Y86.070 E0.01689
G1 X134.015 Y123.930 E1.68728
G1 X133.479 Y123.930 E0.01689
G1 X96.070 Y86.521 E1.66716
G1 X96.070 Y87.057 E0.01689
G1 X132.943 Y123.930 E1.64328
G1 X132.407 Y123.930 E0.01689
G1 X96.070 Y87.593 E1.61939
G1 X96.070 Y88.129 E0.01689
G1 X131.871 Y123.930 E1.59550
M73 Q11 S32
G1 X131.335 Y123.930 E0.01689
G1 X96.070 Y88.665 E1.57162
M73 P11 R32
G1 X96.070 Y89.201 E0.01689
G1 X130.799 Y123.930 E1.54773
G1 X130.263 Y123.930 E0.01689
G1 X96.070 Y89.737 E1.52385
G1 X96.070 Y90.273 E0.01689
G1 X129.727 Y123.930 E1.49996
G1 X129.191 Y123.930 E0.01689
G1 X96.070 Y90.809 E1.47607
G1 X96.070 Y91.345 E0.01689
G1 X128.655 Y123.930 E1.45219
G1 X128.119 Y123.930 E0.01689
G1 X96.070 Y91.881 E1.42830
G1 X96.070 Y92.417 E0.01689
G1 X127.583 Y123.930 E1.40442
G1 X127.047 Y123.930 E0.01689
G1 X96.070 Y92.953 E1.38053
G1 X96.070 Y93.489 E0.01689
G1 X126.511 Y123.930 E1.35664
G1 X125.975 Y123.930 E0.01689
G1 X96.070 Y94.025 E1.33276
G1 X96.070 Y94.561 E0.01689
G1 X125.439 Y123.930 E1.30887
G1 X124.903 Y123.930 E0.01689
G1 X96.070 Y95.097 E1.28499
G1 X96.070 Y95.633 E0.01689
G1 X124.367 Y123.930 E1.26110
G1 X123.831 Y123.930 E0.01689
G1 X96.070 Y96.169 E1.23721
G1 X96.070 Y96.705 E0.01689
G1 X123.295 Y123.930 E1.21333
G1 X122.759 Y123.930 E0.01689
G1 X96.070 Y97.241 E1.18944
G1 X96.070 Y97.777 E0.01689
G1 X122.223 Y123.930 E1.16556
G1 X121.687 Y123.930 E0.01689
G1 X96.070 Y98.313 E1.14167
G1 X96.070 Y98.849 E0.01689
G1 X121.151 Y123.930 E1.11778
G1 X120.615 Y123.930 E0.01689
G1 X96.070 Y99.385 E1.09390
G1 X96.070 Y99.921 E0.01689
G1 X120.079 Y123.930 E1.07001
G1 X119.543 Y123.930 E0.01689
G1 X96.070 Y100.457 E1.04612
G1 X96.070 Y100.993 E0.01689
G1 X119.007 Y123.930 E1.02224
G1 X118.472 Y123.930 E0.01689
G1 X96.070 Y101.528 E0.99835
G1 X96.070 Y102.064 E0.01689
G1 X117.936 Y123.930 E0.97447
G1 X117.400 Y123.930 E0.01689
G1 X96.070 Y102.600 E0.95058
G1 X96.070 Y103.136 E0.01689
G1 X116.864 Y123.930 E0.92669
G1 X116.328 Y123.930 E0.01689
G1 X96.070 Y103.672 E0.90281
G1 X96.070 Y104.208 E0.01689
G1 X115.792 Y123.930 E0.87892
G1 X115.256 Y123.930 E0.01689
G1 X96.070 Y104.744 E0.85504
M73 Q14 S31
G1 X96.070 Y105.280 E0.01689
G1 X114.720 Y123.930 E0.83115
G1 X114.184 Y123.930 E0.01689
G1 X96.070 Y105.816 E0.80726
M73 P14 R31
G1 X96.070 Y106.352 E0.01689
G1 X113.648 Y123.930 E0.78338
G1 X113.112 Y123.930 E0.01689
G1 X96.070 Y106.888 E0.75949
G1 X96.070 Y107.424 E0.01689
G1 X112.576 Y123.930 E0.73561
G1 X112.040 Y123.930 E0.01689
G1 X96.070 Y107.960 E0.71172
G1 X96.070 Y108.496 E0.01689
G1 X111.504 Y123.930 E0.68783
G1 X110.968 Y123.930 E0.01689
G1 X96.070 Y109.032 E0.66395
G1 X96.070 Y109.568 E0.01689
G1 X110.432 Y123.930 E0.64006
G1 X109.896 Y123.930 E0.01689
G1 X96.070 Y110.104 E0.61618
G1 X96.070 Y110.640 E0.01689
G1 X109.360 Y123.930 E0.59229
G1 X108.824 Y123.930 E0.01689
G1 X96.070 Y111.176 E0.56840
G1 X96.070 Y111.712 E0.01689
G1 X108.288 Y123.930 E0.54452
G1 X107.752 Y123.930 E0.01689
G1 X96.070 Y112.248 E0.52063
G1 X96.070 Y112.784 E0.01689
G1 X107.216 Y123.930 E0.49675
G1 X106.680 Y123.930 E0.01689
G1 X96.070 Y113.320 E0.47286
G1 X96.070 Y113.856 E0.01689
G1 X106.144 Y123.930 E0.44897
G1 X105.608 Y123.930 E0.01689
G1 X96.070 Y114.392 E0.42509
G1 X96.070 Y114.928 E0.01689
G1 X105.072 Y123.930 E0.40120
G1 X104.536 Y123.930 E0.01689
G1 X96.070 Y115.464 E0.37731
G1 X96.070 Y116.000 E0.01689
G1 X104.000 Y123.930 E0.35343
G1 X103.464 Y123.930 E0.01689
G1 X96.070 Y116.536 E0.32954
G1 X96.070 Y117.072 E0.01689
G1 X102.928 Y123.930 E0.30566
G1 X102.392 Y123.930 E0.01689
G1 X96.070 Y117.608 E0.28177
G1 X96.070 Y118.144 E0.01689
G1 X101.856 Y123.930 E0.25788
G1 X101.320 Y123.930 E0.01689
G1 X96.070 Y118.680 E0.23400
G1 X96.070 Y119.216 E0.01689
G1 X100.784 Y123.930 E0.21011
G1 X100.249 Y123.930 E0.01689
G1 X96.070 Y119.751 E0.18623
G1 X96.070 Y120.287 E0.01689
G1 X99.713 Y123.930 E0.16234
G1 X99.177 Y123.930 E0.01689
G1 X96.070 Y120.823 E0.13845
G1 X96.070 Y121.359 E0.01689
G1 X98.641 Y123.930 E0.11457
G1 X98.105 Y123.930 E0.01689
G1 X96.070 Y121.895 E0.09068
G1 X96.070 Y122.431 E0.01689
G1 X97.569 Y123.930 E0.06680
G1 X97.033 Y123.930 E0.01689
G1 X96.070 Y122.967 E0.04291
G1 X96.070 Y123.503 E0.01689
G1 X96.666 Y124.100 E0.02659
; stop printing object GetOutOfJailFree.stl id:0 copy 0
M106 S255
;BEFORE_LAYER_CHANGE
G92 E0.0
;0.35


G1 F8640.000
G1 X96.070 Y123.503 E-0.19480
G1 X96.070 Y122.967 E-0.12376
G1 X97.033 Y123.930 E-0.31441
G1 X97.569 Y123.930 E-0.12376
G1 X97.559 Y123.920 E-0.00328
G1 E-0.04000 F2100.00000
G1 Z0.600 F10800.000
;AFTER_LAYER_CHANGE
;0.35
G1 X92.737 Y125.728
G1 Z0.350
G1 E0.80000 F2100.00000
G1 F3000.000
G1 X92.623 Y125.024 E0.01725
G1 X92.623 Y84.970 E0.96871
G1 X92.696 Y84.416 E0.01351
G1 X92.896 Y83.894 E0.01351
G1 X93.215 Y83.431 E0.01360
G1 X93.630 Y83.057 E0.01351
G1 X94.275 Y82.736 E0.01744
G1 X94.984 Y82.623 E0.01734
G1 X155.004 Y82.623 E1.45158
G1 X155.895 Y82.798 E0.02197
G1 X156.656 Y83.295 E0.02197
G1 X157.175 Y84.041 E0.02197
G1 X157.376 Y84.927 E0.02197
G1 X157.376 Y125.057 E0.97055
G1 X157.299 Y125.603 E0.01333
G1 X157.097 Y126.119 E0.01342
G1 X156.783 Y126.572 E0.01333
G1 X156.370 Y126.943 E0.01342
G1 X155.725 Y127.264 E0.01744
G1 X155.016 Y127.377 E0.01734
G1 X94.977 Y127.377 E1.45204
G1 X94.423 Y127.306 E0.01351
G1 X93.897 Y127.106 E0.01360
G1 X93.434 Y126.788 E0.01360
G1 X93.057 Y126.370 E0.01360
G1 X92.764 Y125.782 E0.01589
; printing object GetOutOfJailFree.stl id:0 copy 0
G1 F8640.000
G1 X92.623 Y125.024 E-0.17800
G1 X92.623 Y122.503 E-0.58200
G1 E-0.04000 F2100.00000
G1 Z0.750 F10800.000
G1 X95.643 Y124.357
G1 Z0.350
G1 E0.80000 F2100.00000
M204 S800
G1 F2700.000
G1 X95.643 Y85.643 E1.00873
G1 X154.357 Y85.643 E1.52985
G1 X154.357 Y124.357 E1.00873
G1 X95.703 Y124.357 E1.52828
M204 S1000
G1 X95.225 Y124.775 F10800.000
M204 S800
G1 F1500.000
G1 X95.225 Y85.225 E1.03051
G1 X154.775 Y85.225 E1.55162
G1 X154.775 Y124.775 E1.03051
G1 X95.285 Y124.775 E1.55006
M204 S1000
G1 X95.354 Y124.396 F10800.000
G1 F8640.000
G1 X95.280 Y121.484 E-0.76000
G1 E-0.04000 F2100.00000
G1 Z0.750 F10800.000
G1 X153.386 Y124.232
G1 Z0.350
G1 E0.80000 F2100.00000
G1 F4800.000
G1 X154.044 Y123.574 E0.02426
G1 X154.044 Y122.983 E0.01543
G1 X152.983 Y124.044 E0.03914
G1 X152.391 Y124.044 E0.01543
G1 X154.044 Y122.391 E0.06096
G1 X154.044 Y121.800 E0.01543
G1 X151.800 Y124.044 E0.08279
G1 X151.208 Y124.044 E0.01543
G1 X154.044 Y121.208 E0.10461
G1 X154.044 Y120.617 E0.01543
G1 X150.617 Y124.044 E0.12643
G1 X150.025 Y124.044 E0.01543
G1 X154.044 Y120.025 E0.14825
G1 X154.044 Y119.434 E0.01543
